src/pos-icons/clipboard-multiple-outline.svg

<svg height="24" viewBox="0 0 24 24" width="24" xmlns="http://www.w3.org/2000/svg"><path d="m4 7v14h14v2h-14c-1.1 0-2-.9-2-2v-14zm16-4c1.1 0 2 .9 2 2v12c0 1.1-.9 2-2 2h-12c-1.1 0-2-.9-2-2v-12c0-1.1.9-2 2-2h3.18c.42-1.16 1.52-2 2.82-2s2.4.84 2.82 2zm-6 0c-.55 0-1 .45-1 1s.45 1 1 1 1-.45 1-1-.45-1-1-1m-4 4v-2h-2v12h12v-12h-2v2z"/></svg>

<?xml version="1.0" encoding="UTF-8"?><!DOCTYPE svg PUBLIC "-//W3C//DTD SVG 1.1//EN" "http://www.w3.org/Graphics/SVG/1.1/DTD/svg11.dtd"><svg xmlns="http://www.w3.org/2000/svg" xmlns:xlink="http://www.w3.org/1999/xlink" version="1.1" id="mdi-clipboard-multiple-outline" width="24" height="24" viewBox="0 0 24 24"><path d="M4 7V21H18V23H4C2.9 23 2 22.1 2 21V7H4M20 3C21.1 3 22 3.9 22 5V17C22 18.1 21.1 19 20 19H8C6.9 19 6 18.1 6 17V5C6 3.9 6.9 3 8 3H11.18C11.6 1.84 12.7 1 14 1C15.3 1 16.4 1.84 16.82 3H20M14 3C13.45 3 13 3.45 13 4C13 4.55 13.45 5 14 5C14.55 5 15 4.55 15 4C15 3.45 14.55 3 14 3M10 7V5H8V17H20V5H18V7H10Z" /></svg>
